; Merlin G-code generated by GlyphDSL
G21 ; Set units to millimeters
G90 ; Set to absolute positioning
M280 P0 S80 ; Pen up
G0 X20 Y20 ; Move to origin
G4 P300 ; Wait for pen to move

; Letter: g
G0 X50.0 Y80.0
M280 P0 S40 ; Pen down
G4 P300 ; Wait for pen to move
G3 X30.0 Y80.0 I-10.0 J0.0 F1500
M280 P0 S80 ; Pen up
G4 P300 ; Wait for pen to move
G0 X30.0 Y80.0
M280 P0 S40 ; Pen down
G4 P300 ; Wait for pen to move
G3 X50.0 Y80.0 I10.0 J0.0 F1500
M280 P0 S80 ; Pen up
G4 P300 ; Wait for pen to move
G0 X35.0 Y63.34
M280 P0 S40 ; Pen down
G4 P300 ; Wait for pen to move
G3 X48.66 Y77.0 I5.0 J8.66 F1500
M280 P0 S80 ; Pen up
G4 P300 ; Wait for pen to move

; Letter: e
G0 X85.0 Y80.0
M280 P0 S40 ; Pen down
G4 P300 ; Wait for pen to move
G3 X67.929 Y87.071 I-10.0 J0.0 F1500
G3 X75.0 Y70.0 I7.071 J-7.071 F1500
M280 P0 S80 ; Pen up
G4 P300 ; Wait for pen to move
G0 X75.0 Y80.0
M280 P0 S40 ; Pen down
G4 P300 ; Wait for pen to move
G1 X85.0 Y80.0 F1500
M280 P0 S80 ; Pen up
G4 P300 ; Wait for pen to move

; Letter: n
G0 X100.0 Y70.0
M280 P0 S40 ; Pen down
G4 P300 ; Wait for pen to move
G1 X100.0 Y90.0 F1500
M280 P0 S80 ; Pen up
G4 P300 ; Wait for pen to move
G0 X120.0 Y80.0
M280 P0 S40 ; Pen down
G4 P300 ; Wait for pen to move
G3 X100.0 Y80.0 I-10.0 J0.0 F1500
M280 P0 S80 ; Pen up
G4 P300 ; Wait for pen to move
G0 X120.0 Y70.0
M280 P0 S40 ; Pen down
G4 P300 ; Wait for pen to move
G1 X120.0 Y80.0 F1500
M280 P0 S80 ; Pen up
G4 P300 ; Wait for pen to move

; Letter: u
G0 X135.0 Y90.0
M280 P0 S40 ; Pen down
G4 P300 ; Wait for pen to move
G1 X135.0 Y80.0 F1500
M280 P0 S80 ; Pen up
G4 P300 ; Wait for pen to move
G0 X135.0 Y80.0
M280 P0 S40 ; Pen down
G4 P300 ; Wait for pen to move
G3 X155.0 Y80.0 I10.0 J0.0 F1500
M280 P0 S80 ; Pen up
G4 P300 ; Wait for pen to move
G0 X155.0 Y90.0
M280 P0 S40 ; Pen down
G4 P300 ; Wait for pen to move
G1 X155.0 Y80.0 F1500
M280 P0 S80 ; Pen up
G4 P300 ; Wait for pen to move

; Letter: r
G0 X170.0 Y70.0
M280 P0 S40 ; Pen down
G4 P300 ; Wait for pen to move
G1 X170.0 Y90.0 F1500
M280 P0 S80 ; Pen up
G4 P300 ; Wait for pen to move
G0 X180.0 Y80.0
M280 P0 S40 ; Pen down
G4 P300 ; Wait for pen to move
G3 X170.0 Y90.0 I-10.0 J0.0 F1500
M280 P0 S80 ; Pen up
G4 P300 ; Wait for pen to move

; Letter: a
G0 X211.5 Y80.0
M280 P0 S40 ; Pen down
G4 P300 ; Wait for pen to move
G3 X191.5 Y80.0 I-10.0 J0.0 F1500
M280 P0 S80 ; Pen up
G4 P300 ; Wait for pen to move
G0 X191.5 Y80.0
M280 P0 S40 ; Pen down
G4 P300 ; Wait for pen to move
G3 X211.5 Y80.0 I10.0 J0.0 F1500
M280 P0 S80 ; Pen up
G4 P300 ; Wait for pen to move
G0 X211.5 Y70.0
M280 P0 S40 ; Pen down
G4 P300 ; Wait for pen to move
G1 X211.5 Y90.0 F1500
M280 P0 S80 ; Pen up
G4 P300 ; Wait for pen to move

; Letter: r
G0 X226.5 Y70.0
M280 P0 S40 ; Pen down
G4 P300 ; Wait for pen to move
G1 X226.5 Y90.0 F1500
M280 P0 S80 ; Pen up
G4 P300 ; Wait for pen to move
G0 X236.5 Y80.0
M280 P0 S40 ; Pen down
G4 P300 ; Wait for pen to move
G3 X226.5 Y90.0 I-10.0 J0.0 F1500
M280 P0 S80 ; Pen up
G4 P300 ; Wait for pen to move

; Letter: y
G0 X248.0 Y90.0
M280 P0 S40 ; Pen down
G4 P300 ; Wait for pen to move
G1 X258.0 Y80.0 F1500
M280 P0 S80 ; Pen up
G4 P300 ; Wait for pen to move
G0 X258.0 Y80.0
M280 P0 S40 ; Pen down
G4 P300 ; Wait for pen to move
G1 X268.0 Y90.0 F1500
M280 P0 S80 ; Pen up
G4 P300 ; Wait for pen to move
G0 X258.0 Y80.0
M280 P0 S40 ; Pen down
G4 P300 ; Wait for pen to move
G1 X258.0 Y70.0 F1500
M280 P0 S80 ; Pen up
G4 P300 ; Wait for pen to move
M280 P0 S80 ; Final pen up
G0 X20 Y20 ; Return to origin
M84 ; Disable motors